src/assets/sponsors/lit.svg

<svg height="200" viewBox="0 0 200 200" width="200" xmlns="http://www.w3.org/2000/svg"><path d="m101.199219 146.601562c-35.398438-.203124-38-33.203124-35-40.800781 0 0 2.199219 17.597657 22.199219 13.199219 19.800781-4.398438 9.800781-34.199219 9.402343-35.199219.199219.199219 3.800781 3.597657 6.800781 8.199219 3.199219 4.800781 4 12.800781 3 20-1 7-.402343 16.800781 12.398438 13.199219 15.800781-4.398438 14.398438-29.199219 14.398438-29.199219 7.203124 8.199219 7.800781 50.800781-33.199219 50.601562zm0 0" fill="#fed428"/><path d="m128.199219 77.199219c-.800781 5.800781 1.199219 17 .402343 24-.601562 5.800781-3.601562 10.199219-6.203124 11.402343-2.398438 1.199219-4 .398438-4-1.601562-.199219-2.199219 1.402343-6 1.203124-9.199219-.203124-4-2.601562-8.601562-2.601562-8.601562l1.398438-2.597657 1.203124 1.796876c.558594.851562 1.089844 1.71875 1.597657 2.601562 0 0 2.402343-14.800781 6.601562-23.199219 3-6 10.398438-8.402343 10.800781-8.601562-5.800781 3.402343-9.402343 6.800781-10.402343 14zm0 0" fill="#c60404"/><path d="m124 75.199219-2.601562 8.402343c-1.199219 3.597657-3 7.199219-3 7.199219l-1.398438 2.597657s-2-4-4.199219-7l-4.601562-6.199219s.402343-1.199219.800781-3.199219l1.800781 1.398438s1.199219-4.199219 1.398438-10.398438c.199219-5.199219-1.398438-11.199219-1.398438-11.199219 2 1.597657 5.199219 4.597657 7.398438 7.597657 2.800781 3.402343 5.800781 10.800781 5.800781 10.800781zm0 0" fill="#a70c0c"/><path d="m88.601562 100c-.203124.398438-6 9.601562-14.800781 4.398438-1.601562-1-2.800781-2-3.601562-3.398438-5.199219-8 1.402343-21.601562 1.601562-22.398438v.597657c-.601562 3.402343-2.601562 17.199219 2.597657 21 .203124.199219.402343.199219.601562.402343.398438.199219.601562.398438 1 .597657 4.800781 2.199219 8.601562 1 10.800781 0 .199219 0 .199219-.199219.398438-.199219.800781-.601562 1.199219-1 1.402343-1zm0 0" fill="#a40a0a"/><path d="m112.398438 68c-.199219 6.199219-1.398438 10.398438-1.398438 10.398438l-1.800781-1.398438c.601562-2.199219 1.199219-5.398438 1.402343-8.398438.597657-6.601562-1.402343-13-1.402343-13s.601562.597657 1.601562 1.398438c.199219 0 1.800781 5.800781 1.597657 11zm-23.796876 32c-.203124 0-.601562.398438-1.402343 1-.199219 0-.199219.199219-.398438.199219-2.199219 1-6 2.199219-10.800781 0-.398438-.199219-.601562-.398438-1-.597657-.199219-.203124-.398438-.203124-.601562-.402343-5.199219-3.800781-3.199219-17.800781-2.597657-21-.199219 2.402343-1 11 2.597657 16.601562 4 6.398438 14.203124 4.199219 14.203124 4.199219zm54-9c-4.800781-9.800781-4.800781-17.398438-4.800781-21 0-3.800781 2.597657-6.800781 2.597657-6.800781s-.796876 0-1.796876.199219c-2.203124.601562-6.601562 1.601562-8.601562 3.402343-4.601562 4-5.800781 8.398438-5.800781 8.398438s-1.398438 4.800781-2.597657 8.402343c-1.203124 3.597657-3 7.199219-3 7.199219l1.199219 1.800781c.558594.847657 1.089844 1.714844 1.597657 2.597657 0 0 2.402343-14.800781 6.601562-23.199219 3-6 10.398438-8.398438 10.800781-8.601562-6 3-9.601562 6.402343-10.402343 13.800781-.796876 5.800781 1.203124 17 .402343 24-.601562 5.800781-3.601562 10.199219-6.199219 11.402343-2.402343 1.199219-4 .398438-4-1.601562-.203124-2.199219 1.398438-6 1.199219-9.199219-.199219-4-2.601562-8.601562-2.601562-8.601562s-2-4-4.199219-7l-4.601562-6.199219s-8-7.800781-6.398438-19.601562c1.199219-10 9.601562-16.199219 10-16.597657-.800781.199219-12 2.597657-18.800781 12.597657-5.597657 8.203124-6.398438 16.601562-3.597657 27.800781 2.398438 10-.800781 15.601562-.800781 15.601562-.199219.398438-6 9.597657-14.800781 4.398438-1.601562-1-2.800781-2-3.601562-3.398438-5.199219-8 1.402343-21.601562 1.601562-22.402343 0 0-18.601562 14.203124-18.601562 32.800781 0 19.601562 15.601562 44.800781 46.800781 44.800781 36 0 46.402343-30.601562 47-40 .601562-8 .402343-15-4.597657-25zm-41.402343 55.601562c-35.398438-.203124-38-33.203124-35-40.800781 0 0 2.199219 17.597657 22.199219 13.199219 19.800781-4.398438 9.800781-34.199219 9.402343-35.199219.199219.199219 3.800781 3.597657 6.800781 8.199219 3.199219 4.800781 4 12.800781 3 20-1 7-.402343 16.800781 12.398438 13.199219 15.800781-4.398438 14.398438-29.199219 14.398438-29.199219 7.203124 8.199219 7.800781 50.800781-33.199219 50.601562zm0 0" fill="#f12d2d"/></svg>

<?xml version="1.0" encoding="UTF-8"?>
<svg xmlns="http://www.w3.org/2000/svg" xmlns:xlink="http://www.w3.org/1999/xlink" width="200" height="200" viewBox="0 0 200 200">
<path fill-rule="nonzero" fill="rgb(99.607843%, 83.137256%, 15.686275%)" fill-opacity="1" d="M 101.199219 146.601562 C 65.800781 146.398438 63.199219 113.398438 66.199219 105.800781 C 66.199219 105.800781 68.398438 123.398438 88.398438 119 C 108.199219 114.601562 98.199219 84.800781 97.800781 83.800781 C 98 84 101.601562 87.398438 104.601562 92 C 107.800781 96.800781 108.601562 104.800781 107.601562 112 C 106.601562 119 107.199219 128.800781 120 125.199219 C 135.800781 120.800781 134.398438 96 134.398438 96 C 141.601562 104.199219 142.199219 146.800781 101.199219 146.601562 Z M 101.199219 146.601562 "/>
<path fill-rule="nonzero" fill="rgb(77.64706%, 1.568628%, 1.568628%)" fill-opacity="1" d="M 128.199219 77.199219 C 127.398438 83 129.398438 94.199219 128.601562 101.199219 C 128 107 125 111.398438 122.398438 112.601562 C 120 113.800781 118.398438 113 118.398438 111 C 118.199219 108.800781 119.800781 105 119.601562 101.800781 C 119.398438 97.800781 117 93.199219 117 93.199219 L 118.398438 90.601562 L 119.601562 92.398438 C 120.160156 93.25 120.691406 94.117188 121.199219 95 C 121.199219 95 123.601562 80.199219 127.800781 71.800781 C 130.800781 65.800781 138.199219 63.398438 138.601562 63.199219 C 132.800781 66.601562 129.199219 70 128.199219 77.199219 Z M 128.199219 77.199219 "/>
<path fill-rule="nonzero" fill="rgb(65.490198%, 4.705882%, 4.705882%)" fill-opacity="1" d="M 124 75.199219 L 121.398438 83.601562 C 120.199219 87.199219 118.398438 90.800781 118.398438 90.800781 L 117 93.398438 C 117 93.398438 115 89.398438 112.800781 86.398438 L 108.199219 80.199219 C 108.199219 80.199219 108.601562 79 109 77 L 110.800781 78.398438 C 110.800781 78.398438 112 74.199219 112.199219 68 C 112.398438 62.800781 110.800781 56.800781 110.800781 56.800781 C 112.800781 58.398438 116 61.398438 118.199219 64.398438 C 121 67.800781 124 75.199219 124 75.199219 Z M 124 75.199219 "/>
<path fill-rule="nonzero" fill="rgb(64.313728%, 3.921569%, 3.921569%)" fill-opacity="1" d="M 88.601562 100 C 88.398438 100.398438 82.601562 109.601562 73.800781 104.398438 C 72.199219 103.398438 71 102.398438 70.199219 101 C 65 93 71.601562 79.398438 71.800781 78.601562 L 71.800781 79.199219 C 71.199219 82.601562 69.199219 96.398438 74.398438 100.199219 C 74.601562 100.398438 74.800781 100.398438 75 100.601562 C 75.398438 100.800781 75.601562 101 76 101.199219 C 80.800781 103.398438 84.601562 102.199219 86.800781 101.199219 C 87 101.199219 87 101 87.199219 101 C 88 100.398438 88.398438 100 88.601562 100 Z M 88.601562 100 "/>
<path fill-rule="nonzero" fill="rgb(94.509804%, 17.647059%, 17.647059%)" fill-opacity="1" d="M 112.398438 68 C 112.199219 74.199219 111 78.398438 111 78.398438 L 109.199219 77 C 109.800781 74.800781 110.398438 71.601562 110.601562 68.601562 C 111.199219 62 109.199219 55.601562 109.199219 55.601562 C 109.199219 55.601562 109.800781 56.199219 110.800781 57 C 111 57 112.601562 62.800781 112.398438 68 Z M 88.601562 100 C 88.398438 100 88 100.398438 87.199219 101 C 87 101 87 101.199219 86.800781 101.199219 C 84.601562 102.199219 80.800781 103.398438 76 101.199219 C 75.601562 101 75.398438 100.800781 75 100.601562 C 74.800781 100.398438 74.601562 100.398438 74.398438 100.199219 C 69.199219 96.398438 71.199219 82.398438 71.800781 79.199219 C 71.601562 81.601562 70.800781 90.199219 74.398438 95.800781 C 78.398438 102.199219 88.601562 100 88.601562 100 Z M 142.601562 91 C 137.800781 81.199219 137.800781 73.601562 137.800781 70 C 137.800781 66.199219 140.398438 63.199219 140.398438 63.199219 C 140.398438 63.199219 139.601562 63.199219 138.601562 63.398438 C 136.398438 64 132 65 130 66.800781 C 125.398438 70.800781 124.199219 75.199219 124.199219 75.199219 C 124.199219 75.199219 122.800781 80 121.601562 83.601562 C 120.398438 87.199219 118.601562 90.800781 118.601562 90.800781 L 119.800781 92.601562 C 120.359375 93.449219 120.890625 94.316406 121.398438 95.199219 C 121.398438 95.199219 123.800781 80.398438 128 72 C 131 66 138.398438 63.601562 138.800781 63.398438 C 132.800781 66.398438 129.199219 69.800781 128.398438 77.199219 C 127.601562 83 129.601562 94.199219 128.800781 101.199219 C 128.199219 107 125.199219 111.398438 122.601562 112.601562 C 120.199219 113.800781 118.601562 113 118.601562 111 C 118.398438 108.800781 120 105 119.800781 101.800781 C 119.601562 97.800781 117.199219 93.199219 117.199219 93.199219 C 117.199219 93.199219 115.199219 89.199219 113 86.199219 L 108.398438 80 C 108.398438 80 100.398438 72.199219 102 60.398438 C 103.199219 50.398438 111.601562 44.199219 112 43.800781 C 111.199219 44 100 46.398438 93.199219 56.398438 C 87.601562 64.601562 86.800781 73 89.601562 84.199219 C 92 94.199219 88.800781 99.800781 88.800781 99.800781 C 88.601562 100.199219 82.800781 109.398438 74 104.199219 C 72.398438 103.199219 71.199219 102.199219 70.398438 100.800781 C 65.199219 92.800781 71.800781 79.199219 72 78.398438 C 72 78.398438 53.398438 92.601562 53.398438 111.199219 C 53.398438 130.800781 69 156 100.199219 156 C 136.199219 156 146.601562 125.398438 147.199219 116 C 147.800781 108 147.601562 101 142.601562 91 Z M 101.199219 146.601562 C 65.800781 146.398438 63.199219 113.398438 66.199219 105.800781 C 66.199219 105.800781 68.398438 123.398438 88.398438 119 C 108.199219 114.601562 98.199219 84.800781 97.800781 83.800781 C 98 84 101.601562 87.398438 104.601562 92 C 107.800781 96.800781 108.601562 104.800781 107.601562 112 C 106.601562 119 107.199219 128.800781 120 125.199219 C 135.800781 120.800781 134.398438 96 134.398438 96 C 141.601562 104.199219 142.199219 146.800781 101.199219 146.601562 Z M 101.199219 146.601562 "/>
</svg>
